X:1
T:Title
%%score { ( 1 3 ) | ( 2 4 ) }
L:1/8
Q:1/4=116
M:4/4
K:G
V:1 treble nm="Grand Piano"
V:3 treble 
V:2 bass 
V:4 bass 
V:1
 G2 D2 G2 A2 | B4 G4 | d2 d2 c2 B2 | [CEGA]6 z2 | A2 E2 A2 B2 | c4 A4 | [^CA]2 [CA]2 [GB]2 [G^c]2 | %7
w: J.~Lincoln~Hall * * *|||||||
 [Fd]6 z2 | d2 B2 G2 A2 | G4[K:bass] F4 | c2 A2 F2 D2 | d6[K:bass] z2 | B2 d2 c2 B2 | %13
w: ||||||
 [EGA]4 [Ge]4 | [Gd]2 [B,EG]2 [DGB]2 [CFA]2 | [B,G]6 z2 | [DGB]4 [DGB]4 | z4 [Gd]4 | G2 A2 B2 c2 | %19
w: ||||||
 d6 z2 | [CEc]4 [CEc]4 | z4 [Ae]4 | A2 B2 [^CA]2 [CE]2 | [CA]6[K:bass] z2 | d2 B2 G2 A2 | %25
w: ||||||
 G4[K:bass] F4 | c2 A2 F2 D2 | d6[K:bass] z2 | B2 d2 c2 B2 | [EGA]4 [Ge]4 | %30
w: |||||
 [Gd]2 [B,EG]2 [DGB]2 [CFA]2 | [B,G]6 z2 |] %32
w: ||
V:2
 G,2 D,2 G,2 A,2 | B,4 G,4 | [G,B,G]2 [G,B,G]2 [G,EG]2 [G,DG]2 | C,6 z2 | A,2 E,2 A,2 B,2 | %5
 C4 A,4 | [A,,A,]2 [A,,A,]2 [A,,A,]2 [A,,A,]2 | A,4 z4 | [G,B,]2 D,2 [G,B,]2 D,2 | %9
 [A,C]2 z2 [A,C]2 z2 | [A,C]2 D,2 [A,C]2 D,2 | [G,B,]2 z2 G,2 z2 | %12
 [G,DG]2 [G,B,G]2 [G,EG]2 [G,DG]2 | [C,C]4 [^C,_B,]4 | [D,B,]2 E,2 D,2 D,2 | G,6 z2 | %16
 G,2 D,2 G,2 A,2 | B,4 B,4 | [G,B,]2 [G,CG]2 [G,DG]2 [G,CG]2 | [A,CF]6 z2 | A,2 E,2 A,2 B,2 | %21
 C4 C4 | [A,^CE]2 [A,CE]2 [A,,A,]2 [A,,G,]2 | [D,F,]2 E,2 F,2 D,2 | [G,B,]2 D,2 [G,B,]2 D,2 | %25
 [A,C]2 z2 [A,C]2 z2 | [A,C]2 D,2 [A,C]2 D,2 | [G,B,]2 z2 G,2 z2 | %28
 [G,DG]2 [G,B,G]2 [G,EG]2 [G,DG]2 | [C,C]4 [^C,_B,]4 | [D,B,]2 E,2 D,2 D,2 | G,6 z2 |] %32
V:3
 x8 | x8 | x8 | x8 | x8 | x8 | x8 | z4 C2 z2 | x8 | z2[K:bass] D,2 z2 D,2 | x8 | %11
 z2[K:bass] D,2 B,2 D,2 | x8 | x8 | x8 | x8 | x8 | [Gd]4 z2 G,2 | x8 | x8 | x8 | [Ae]4 z2 A,2 | %22
 x8 | z2[K:bass] G,2 A,2 F,2 | x8 | z2[K:bass] D,2 z2 D,2 | x8 | z2[K:bass] D,2 B,2 D,2 | x8 | x8 | %30
 x8 | x8 |] %32
V:4
 x8 | x8 | x8 | x8 | x8 | x8 | x8 | D,6 z2 | x8 | x8 | x8 | x8 | x8 | x8 | x8 | x8 | x8 | %17
 z2 G,2 D,2 z2 | x8 | x8 | x8 | z2 A,2 E,2 z2 | x8 | x8 | x8 | x8 | x8 | x8 | x8 | x8 | x8 | x8 |] %32

